X: 11
T:The Queen's Jig
% Nottingham Music Database
S:Playford
M:6/8
K:D
P:A
A|"D"d2e fdf|"G"g3 "A7"fga|"D"fgf "Em"e2d|"E7"e3 "A7"A2A|"D"d2e fdf|\
"G"g3 "A7"fga|"D"fgf "A7"e2d|"D"d3 -d2:|
P:B
a|"D"aba g2f|"G"g3 "A7"fga|"D"fgf "Em"e2d|"Em"e3 "A7"A2a|"D"aba g2f|\
"G"g3 "A7"fga|"D"fgf "A7"e2d|"D"d3 -d2:|


